assets/clock-1.svg

<svg xmlns="http://www.w3.org/2000/svg" fill="none" viewBox="0 0 28 28">
  <path fill="#2A2238" fill-rule="evenodd" d="M28 14c0 7.732-6.268 14-14 14-7.73199 0-14-6.268-14-14C0 6.26801 6.26801 0 14 0c7.732 0 14 6.26801 14 14ZM14 4.25c.4142 0 .75.33579.75.75v8.5c0 .022-.0009.0438-.0028.0654l6.989 4.0351c.3587.2071.4816.6658.2745 1.0245-.2071.3587-.6658.4816-1.0245.2745l-7.3612-4.25c-.3181-.1837-.4508-.5652-.3323-.8994-.0276-.0782-.0427-.1624-.0427-.2501V5c0-.41421.3358-.75.75-.75Z" clip-rule="evenodd"/>
</svg>

<svg width="28" height="28" viewBox="0 0 28 28" fill="none" xmlns="http://www.w3.org/2000/svg">
<path fill-rule="evenodd" clip-rule="evenodd" d="M28 14C28 21.732 21.732 28 14 28C6.26801 28 0 21.732 0 14C0 6.26801 6.26801 0 14 0C21.732 0 28 6.26801 28 14ZM14 4.25C14.4142 4.25 14.75 4.58579 14.75 5V13.5C14.75 13.522 14.7491 13.5438 14.7472 13.5654L21.7362 17.6005C22.0949 17.8076 22.2178 18.2663 22.0107 18.625C21.8036 18.9837 21.3449 19.1066 20.9862 18.8995L13.625 14.6495C13.3069 14.4658 13.1742 14.0843 13.2927 13.7501C13.2651 13.6719 13.25 13.5877 13.25 13.5V5C13.25 4.58579 13.5858 4.25 14 4.25Z" fill="#2A2238"/>
</svg>
